X:1
T:For Children- Book 2 (after Slovakian Folksongs)
T:42. Arioso Lamentoso
T:Book 2 (after Slovakian Folksongs)
T:42. Arioso Lamentoso
T:For Children Nr 42, Sz 42 
T:Béla Bartók Revised and Arranged by the Composer, January 1945 
T:Oli 2020
C:Bartók, Béla
Z:Oli 2020
%%score { ( 1 3 ) | 2 }
L:1/8
Q:1/4=52
M:2/4
K:C
V:1 treble nm="Piano"
V:3 treble 
V:2 bass 
V:1
"^Lento"!mp!"^dolce" (!2!!4![_Ac]2 !3!!5![_B_e]2 | !2!!4![_Ac]2 !1!!3![F_B]2) | ([_Ac]2 [_B_e]2 | %3
 [_Ac]2 [F_B]2) | ([_Ac]2!mp! [_B_e]2 | [_Ac]2 [F_B]2) | ([_Ac]2 [F_e]2 | [_Ac]2 [F_B]2) | %8
 ([_Ac]2 [F_e]2 | !4![_Ac]2 !5![Fd]2 | !2!!3![_Ac]2 [F_e]2 | !2!!3![_Ac]2 !1!!5![_Bf]2) | %12
 (!2!!4![c_e]2 [_Af]2 | [c_e]2 [_Ad]2) | ([c_e]2 [_Af]2 | [c_e]2 [_Ad]2) | ([c_e]2 [_A-f]2 | %17
 [A_e]2 !2!!5![_Bf]2- | [Bf]2) (!2!!3![cd]2 | [Af]2 [cd]2- | [cd]2)!<(! !5
2
!g2- | %21
"_molto espr." g4-!<)! |!>(! g4- | g4!>)! |"^dolce"!p! (!1!!4![c_a]2 !3!!5![f_b]2 | %25
 !2!!4![_e_a]2 !1!!3![_Bf]2) |!<(! (!2!!4![_e_a]2!<)!!>(! !3!!5![f=b]2!>)! | %27
 !2!!4![_e_a]2 !1!!3![Bf]2) | (!1!!3![c_a]2 !>![ad']2 | !1!!3![c_a]2 !1!!2![Bf]2) | %30
 (!1!!4![c_a]2 !2!!5![f__b]2) | (!1!!4![c_a]2 !2!!5![f_b]2) |!pp!"^dolce" (!2!!4![_ac']2 [_b_e']2 | %33
 [_ac']2 [f_b]2) |!<(! ([_ac']2!<)!!>(! [f=e']2!>)! | [_ac']2 [f_b]2) | [_ac']2 ((!1!!5![f_e']2 | %37
 !2_1!!4![_a_e']2) !2!!5![_bf']2- | [bf']2)"_molto espr."!<(! (!2!!3![c'd']2 | [ag']2 [c'd']2- | %40
 d'2) g'2- | g'2 !4
2
!g'2- | g'2!<)!!mf!!>(! !4
1
!g'2- | g'2!>)!!pp! !4
2
!g'2 |] %44
V:2
 z4 | z4 | z4 | z4 |"_sonore e poco rubato" !tenuto!_E,!f!!tenuto!E,!tenuto!D,!tenuto!C, | %5
 !tenuto!D, C,3 | !tenuto!D,!tenuto!C,!tenuto!!1!=B,,(_A,,/G,,/) | %7
 !tenuto!F,,!tenuto!E,, !tenuto!F,,2 | !tenuto!!5!F,,!tenuto!!4!G,,!tenuto!!2!B,,!tenuto!!1!C, | %9
 !tenuto!!3!D, _E,3 | D,4- | D,2 z2 | !tenuto!_E,!tenuto!E,!tenuto!D,!tenuto!C, | %13
 !tenuto!D, !tenuto!C,3 | !tenuto!D,!tenuto!C,!tenuto!!1!=B,,(_A,,/G,,/) | %15
 !tenuto!F,,!tenuto!E,, !tenuto!F,,2 | !tenuto!!1!C,!tenuto!!2!C,D,!tenuto!C, | %17
 !tenuto!!1!B,, !tenuto!!3!A,,3 | G,,4- | G,,4- | G,,4- | G,,4 | z4 | z4 | %24
!mf! !tenuto!!2!_E!tenuto!E!tenuto!D!tenuto!C | D C3 | !tenuto!D!tenuto!C!tenuto!B,(_A,/G,/) | %27
 !tenuto!F,!tenuto!E, !tenuto!F,2 | !tenuto!F,!tenuto!G,!tenuto!B,!tenuto!C | D _E3 | D4- | D2 z2 | %32
!p! !tenuto!_E!tenuto!E!tenuto!D!tenuto!C | !tenuto!D !tenuto!C3 | %34
 !tenuto!D!tenuto!C!tenuto!B,(_A,/G,/) | !tenuto!F,!tenuto!E, !tenuto!F,2 | %36
 !tenuto!C!tenuto!C!tenuto!D!tenuto!C | !tenuto!=B, _A,3 | G,4- | G,4- | G,4- | G,4 | z4 | z4 |] %44
V:3
 x4 | x4 | x4 | x4 | x4 | x4 | x4 | x4 | x4 | x4 | x4 | x4 | x4 | x4 | x4 | x4 | x4 | x4 | x4 | %19
 x4 | x2 (c2 | !1!B2 !2!_e2- | e2 =e2- | e2 _e2) | x4 | x4 | x4 | x4 | x4 | x4 | x4 | x4 | x4 | %33
 x4 | x4 | x4 | x4 | x4 | x4 | x4 | c'4 | b2 (_e'2- | e'2 =e'2- | e'2 _e'2) |] %44

